prive/themes/spip/images/supprimer-xx.svg

<svg height="64" viewBox="0 0 64 64" width="64" xmlns="http://www.w3.org/2000/svg"><path d="m394 154.175c-5.331-5.33-11.806-7.994-19.417-7.994h-118.772v-118.775c0-7.611-2.666-14.084-7.994-19.414-5.329-5.326-11.797-7.992-19.419-7.992h-54.812c-7.612 0-14.084 2.663-19.414 7.993s-7.994 11.803-7.994 19.414v118.775h-118.771c-7.611 0-14.084 2.664-19.414 7.994s-7.993 11.797-7.993 19.413v54.819c0 7.618 2.662 14.086 7.992 19.411 5.33 5.332 11.803 7.994 19.414 7.994h118.771v118.777c0 7.611 2.664 14.089 7.994 19.417 5.33 5.325 11.802 7.987 19.414 7.987h54.816c7.617 0 14.086-2.662 19.417-7.987 5.332-5.331 7.994-11.806 7.994-19.417v-118.777h118.77c7.618 0 14.089-2.662 19.417-7.994 5.329-5.325 7.994-11.793 7.994-19.411v-54.819c-.002-7.616-2.661-14.087-7.993-19.414z" fill="#d85305" transform="matrix(.12945710976 .12945710976 -.12945710976 .12945710976 32.02308 -20.018678028)"/></svg>

<svg version="1.1"
		 id="Capa_1"
		 xmlns="http://www.w3.org/2000/svg" xmlns:xlink="http://www.w3.org/1999/xlink"
		 x="0px" y="0px"
		 width="64"
		 height="64"
		 viewBox="0 0 64 64">
	<g transform="scale(0.1592)">
		<g transform="translate(-30 -30) scale(1.15) rotate(45 201 201)">
			<path fill="#D85305" d="M394,154.175c-5.331-5.33-11.806-7.994-19.417-7.994H255.811V27.406c0-7.611-2.666-14.084-7.994-19.414
				C242.488,2.666,236.02,0,228.398,0h-54.812c-7.612,0-14.084,2.663-19.414,7.993c-5.33,5.33-7.994,11.803-7.994,19.414v118.775
				H27.407c-7.611,0-14.084,2.664-19.414,7.994S0,165.973,0,173.589v54.819c0,7.618,2.662,14.086,7.992,19.411
				c5.33,5.332,11.803,7.994,19.414,7.994h118.771V374.59c0,7.611,2.664,14.089,7.994,19.417c5.33,5.325,11.802,7.987,19.414,7.987
				h54.816c7.617,0,14.086-2.662,19.417-7.987c5.332-5.331,7.994-11.806,7.994-19.417V255.813h118.77
				c7.618,0,14.089-2.662,19.417-7.994c5.329-5.325,7.994-11.793,7.994-19.411v-54.819C401.991,165.973,399.332,159.502,394,154.175z"
				/>
		</g>
	</g>
</svg>
